icon-themes/elementary_svg/cmd/sc_signaturelinedialog.svg

<svg viewBox="0 0 16 16" xmlns="http://www.w3.org/2000/svg" xmlns:xlink="http://www.w3.org/1999/xlink"><linearGradient id="a" gradientTransform="matrix(.4282553 -.43106531 .53455872 .53134798 -16.236606 2.214998)" gradientUnits="userSpaceOnUse" spreadMethod="pad" x1="23.575972" x2="23.575972" y1="25.356892" y2="31.210939"><stop offset="0" stop-color="#181818"/><stop offset=".13482948" stop-color="#dbdbdb"/><stop offset=".20224422" stop-color="#a4a4a4"/><stop offset=".26965895" stop-color="#fff"/><stop offset=".44650277" stop-color="#8d8d8d"/><stop offset=".57114136" stop-color="#959595"/><stop offset=".72038066" stop-color="#cecece"/><stop offset="1" stop-color="#181818"/></linearGradient>


     /&gt;
 <path d="m2.999999.99999996c2.2915074 0 9.999988.00089004 9.999988.00089004l.000012 13.99911s-6.6666668 0-10 0c0-4.666666 0-9.333334 0-14.00000004z" fill="#e9e9e9"/><path d="m2.4999611.49997396c2.5206756 0 11.0000629.000954 11.0000629.000954l.000013 14.99909804s-7.3333841 0-11.000076 0c0-5.000017 0-10.000035 0-15.00005204z" fill="none" stroke="#8c8c8c" stroke-linejoin="round" stroke-width=".999922"/><path d="m12.499999 14.5h-9.0000001v-13h9.0000001z" fill="none" stroke="#fff" stroke-linecap="round"/><g transform="matrix(.49679685 0 0 .49679685 8.547669 7.54429)"><path d="m2.0935243 10.874635c.2951422-.214459 1.1824032.264723 2.0191722 1.096466.8347689.829753 1.2980207 1.694686 1.0892971 1.993333-.0007939.0011.020363.01832.01955.01943l8.9850884-9.1844255c.26307-.2689067-.350319-1.180798-1.213653-2.0389454-.863332-.8581474-1.612815-1.3007326-1.876991-1.0329093z" fill="url(#a)" stroke="#ce5c00" stroke-linejoin="round" stroke-width="1.47011"/><path d="m2.1992381 10.874635c.2951427-.21446 1.1824035.264723 2.0191727 1.096464.8347679.829754 1.2980203 1.694687 1.0892973 1.993335-.0007946.0011-.026356-.364784-.02717-.363669l7.0887909-7.2107351 1.487314-1.5155254c-.159709-.3558129-.124417-.4292873-.097268.0086007.208768-.2986492-.193612-.880056-1.028378-1.7098092-.83677-.8317426-1.22189-1.2052089-1.51703-.9907501l.000419-.026678z" fill="#fcaf3e" opacity=".6"/><path d="m .25082957 15.786088 4.91506913-1.781579.040488-.04054c.2087244-.298638-.2599716-1.163927-1.0947404-1.99368-.8367693-.831743-1.7228788-1.308476-2.0180213-1.094017z" fill-rule="evenodd" stroke="#5d5d5d" stroke-width="1.47011"/><path d="m .75000151 14.456308-.49977403 1.324387 1.34042902-.488782c-.1170979-.137462-.2258647-.276541-.3649929-.414833-.1601739-.159212-.31629618-.289791-.47566209-.420772z" fill="#fcaf3e" fill-rule="evenodd" stroke="#ce5c00" stroke-width=".735055"/></g></svg>

<?xml version="1.0" encoding="UTF-8" standalone="no"?>
<svg
   xmlns:dc="http://purl.org/dc/elements/1.1/"
   xmlns:cc="http://creativecommons.org/ns#"
   xmlns:rdf="http://www.w3.org/1999/02/22-rdf-syntax-ns#"
   xmlns:svg="http://www.w3.org/2000/svg"
   xmlns="http://www.w3.org/2000/svg"
   xmlns:xlink="http://www.w3.org/1999/xlink"
   xmlns:sodipodi="http://sodipodi.sourceforge.net/DTD/sodipodi-0.dtd"
   xmlns:inkscape="http://www.inkscape.org/namespaces/inkscape"
   id="svg3942"
   height="16"
   width="16"
   version="1.1"
   sodipodi:docname="sc_signaturelinedialog.svg"
   inkscape:export-filename="/home/rizmut/Dokumen/Rizmut/Github/libreoffice-style-elementary/images_elementary/cmd/sc_signaturelinedialog.png"
   inkscape:export-xdpi="96"
   inkscape:export-ydpi="96"
   inkscape:version="0.92.3 (unknown)">
  <sodipodi:namedview
     pagecolor="#ffffff"
     bordercolor="#666666"
     borderopacity="1"
     objecttolerance="10"
     gridtolerance="10"
     guidetolerance="10"
     inkscape:pageopacity="0"
     inkscape:pageshadow="2"
     inkscape:window-width="1366"
     inkscape:window-height="706"
     id="namedview23"
     showgrid="false"
     inkscape:zoom="3.6875"
     inkscape:cx="-40.886706"
     inkscape:cy="-3.1869006"
     inkscape:window-x="0"
     inkscape:window-y="0"
     inkscape:window-maximized="1"
     inkscape:current-layer="svg3942" />
  <defs
     id="defs3944">
    <linearGradient
       gradientTransform="matrix(0.25378586,0,0,0.30501865,19.128979,-0.68547704)"
       gradientUnits="userSpaceOnUse"
       xlink:href="#linearGradient3104-9"
       id="linearGradient3092"
       y2="2.9062471"
       x2="-51.786404"
       y1="50.786446"
       x1="-51.786404" />
    <linearGradient
       id="linearGradient3104-9">
      <stop
         offset="0"
         style="stop-color:#000000;stop-opacity:0.33950618"
         id="stop3106-5" />
      <stop
         offset="1"
         style="stop-color:#000000;stop-opacity:0.24691358"
         id="stop3108-5" />
    </linearGradient>
    <linearGradient
       gradientTransform="matrix(0.24324324,0,0,0.35135133,2.1621636,-0.43242804)"
       gradientUnits="userSpaceOnUse"
       xlink:href="#linearGradient3977"
       id="linearGradient3095"
       y2="41.076912"
       x2="23.99999"
       y1="6.9230647"
       x1="23.99999" />
    <linearGradient
       id="linearGradient3977">
      <stop
         offset="0"
         style="stop-color:#ffffff;stop-opacity:1"
         id="stop3979" />
      <stop
         offset="0"
         style="stop-color:#ffffff;stop-opacity:0.23529412"
         id="stop3981" />
      <stop
         offset="1"
         style="stop-color:#ffffff;stop-opacity:0.15686275"
         id="stop3983" />
      <stop
         offset="1"
         style="stop-color:#ffffff;stop-opacity:0.39215687"
         id="stop3985" />
    </linearGradient>
    <linearGradient
       id="linearGradient3600">
      <stop
         offset="0"
         style="stop-color:#f4f4f4;stop-opacity:1"
         id="stop3602" />
      <stop
         offset="1"
         style="stop-color:#dbdbdb;stop-opacity:1"
         id="stop3604" />
    </linearGradient>
    <linearGradient
       gradientTransform="matrix(0.28571361,0,0,0.30419701,1.1428727,0.2326048)"
       gradientUnits="userSpaceOnUse"
       xlink:href="#linearGradient3600"
       id="linearGradient3940"
       y2="47.013336"
       x2="25.132275"
       y1="0.98520643"
       x1="25.132275" />
    <linearGradient
       id="a"
       gradientTransform="matrix(0.4282553,-0.43106531,0.53455872,0.53134798,-16.236606,2.214998)"
       gradientUnits="userSpaceOnUse"
       spreadMethod="pad"
       x1="23.575972"
       x2="23.575972"
       y1="25.356892"
       y2="31.210939">
      <stop
         offset="0"
         stop-color="#181818"
         id="stop2" />
      <stop
         offset=".13482948"
         stop-color="#dbdbdb"
         id="stop4" />
      <stop
         offset=".20224422"
         stop-color="#a4a4a4"
         id="stop6" />
      <stop
         offset=".26965895"
         stop-color="#fff"
         id="stop8" />
      <stop
         offset=".44650277"
         stop-color="#8d8d8d"
         id="stop10" />
      <stop
         offset=".57114136"
         stop-color="#959595"
         id="stop12" />
      <stop
         offset=".72038066"
         stop-color="#cecece"
         id="stop14" />
      <stop
         offset="1"
         stop-color="#181818"
         id="stop16" />
    </linearGradient>
  </defs>
  <metadata
     id="metadata3947">
    <rdf:RDF>
      <cc:Work
         rdf:about="">
        <dc:format>image/svg+xml</dc:format>
        <dc:type
           rdf:resource="http://purl.org/dc/dcmitype/StillImage" />
        <dc:title></dc:title>
      </cc:Work>
    </rdf:RDF>
  </metadata>
  <g
     id="g1960">
    <path
       style="display:inline;fill:url(#linearGradient3940);fill-opacity:1;stroke:none"
       id="path4160"
       d="m 3,1 c 2.2915074,0 9.999988,8.904e-4 9.999988,8.904e-4 L 13,15 C 13,15 6.3333332,15 3,15 3,10.333334 3,5.6666664 3,1 Z" />
    <path
       style="fill:none;stroke:url(#linearGradient3095);stroke-width:1;stroke-linecap:round;stroke-linejoin:miter;stroke-miterlimit:4;stroke-dasharray:none;stroke-dashoffset:0;stroke-opacity:1"
       id="rect6741-1"
       d="M 12.5,14.5 H 3.4999999 V 1.5 H 12.5 Z" />
    <path
       style="display:inline;fill:none;stroke:url(#linearGradient3092);stroke-width:0.99992192;stroke-linecap:butt;stroke-linejoin:round;stroke-miterlimit:4;stroke-dasharray:none;stroke-dashoffset:0;stroke-opacity:1"
       id="path4160-8"
       d="m 2.4999621,0.49997396 c 2.5206756,0 11.0000629,9.54e-4 11.0000629,9.54e-4 l 1.3e-5,14.99909804 c 0,0 -7.3333841,0 -11.000076,0 0,-5.000017 0,-10.000035 10e-8,-15.00005204 z" />
  </g>
  <g
     transform="matrix(0.49679685,0,0,0.49679685,8.547669,7.54429)"
     id="g33">
    <path
       style="fill:url(#a);stroke:#ce5c00;stroke-width:1.47011006;stroke-linejoin:round"
       inkscape:connector-curvature="0"
       d="m 2.0935243,10.874635 c 0.2951422,-0.214459 1.1824032,0.264723 2.0191722,1.096466 0.8347689,0.829753 1.2980207,1.694686 1.0892971,1.993333 -7.939e-4,0.0011 0.020363,0.01832 0.01955,0.01943 L 14.206632,4.7994385 C 14.469702,4.5305318 13.856313,3.6186405 12.992979,2.7604931 12.129647,1.9023457 11.380164,1.4597605 11.115988,1.7275838 Z"
       id="path25" />
    <path
       style="opacity:0.6;fill:#fcaf3e"
       inkscape:connector-curvature="0"
       d="m 2.1992381,10.874635 c 0.2951427,-0.21446 1.1824035,0.264723 2.0191727,1.096464 0.8347679,0.829754 1.2980203,1.694687 1.0892973,1.993335 -7.946e-4,0.0011 -0.026356,-0.364784 -0.02717,-0.363669 L 12.369329,6.3900299 13.856643,4.8745045 C 13.696934,4.5186916 13.732226,4.4452172 13.759375,4.8831052 13.968143,4.584456 13.565763,4.0030492 12.730997,3.173296 11.894227,2.3415534 11.509107,1.9680871 11.213967,2.1825459 l 4.19e-4,-0.026678 z"
       id="path27" />
    <path
       style="fill-rule:evenodd;stroke:#5d5d5d;stroke-width:1.47011006"
       inkscape:connector-curvature="0"
       d="m 0.25082957,15.786088 4.91506913,-1.781579 0.040488,-0.04054 C 5.4151111,13.665331 4.9464151,12.800042 4.1116463,11.970289 3.274877,11.138546 2.3887675,10.661813 2.093625,10.876272 Z"
       id="path29" />
    <path
       style="fill:#fcaf3e;fill-rule:evenodd;stroke:#ce5c00;stroke-width:0.73505503"
       inkscape:connector-curvature="0"
       d="M 0.75000151,14.456308 0.25022748,15.780695 1.5906565,15.291913 C 1.4735586,15.154451 1.3647918,15.015372 1.2256636,14.87708 1.0654897,14.717868 0.90936742,14.587289 0.75000151,14.456308 Z"
       id="path31" />
  </g>
</svg>
